www/assets/icons/link_off.svg

<svg xmlns="http://www.w3.org/2000/svg" width="24" height="24" viewBox="0 0 24 24" fill='currentColor'><path d="M17 7h-4v1.9h4c1.71 0 3.1 1.39 3.1 3.1 0 1.43-.98 2.63-2.31 2.98l1.46 1.46C20.88 15.61 22 13.95 22 12c0-2.76-2.24-5-5-5m-1 4h-2.19l2 2H16zM2 4.27l3.11 3.11A4.99 4.99 0 0 0 2 12c0 2.76 2.24 5 5 5h4v-1.9H7c-1.71 0-3.1-1.39-3.1-3.1 0-1.59 1.21-2.9 2.76-3.07L8.73 11H8v2h2.73L13 15.27V17h1.73l4.01 4L20 19.74 3.27 3z"/></svg>

<svg width="24" height="24" viewBox="0 0 24 24" xmlns="http://www.w3.org/2000/svg" fill='currentColor'><path d="M17 7H13V8.9H17C18.71 8.9 20.1 10.29 20.1 12C20.1 13.43 19.12 14.63 17.79 14.98L19.25 16.44C20.88 15.61 22 13.95 22 12C22 9.24 19.76 7 17 7ZM16 11H13.81L15.81 13H16V11ZM2 4.27L5.11 7.38C3.29 8.12 2 9.91 2 12C2 14.76 4.24 17 7 17H11V15.1H7C5.29 15.1 3.9 13.71 3.9 12C3.9 10.41 5.11 9.1 6.66 8.93L8.73 11H8V13H10.73L13 15.27V17H14.73L18.74 21L20 19.74L3.27 3L2 4.27Z"/></svg>
